findly-builder/apps/searchassist/src/assets/images/pricing-plan/plan-crown.svg

<svg width="25" height="26" viewBox="0 0 25 26" fill="none" xmlns="http://www.w3.org/2000/svg">
<path d="M18.7487 19.2503H6.2487L3.64453 8.83366L8.85286 13.0003L12.4987 6.22949L16.1445 13.0003L21.3529 8.83366L18.7487 19.2503Z" fill="#FFC107"/>
<path d="M6.2487 19.2497H18.7487V21.8538H6.2487V19.2497ZM12.4987 4.14551C12.2224 4.14551 11.9575 4.25525 11.7621 4.4506C11.5668 4.64596 11.457 4.91091 11.457 5.18717C11.457 5.46344 11.5668 5.72839 11.7621 5.92374C11.9575 6.11909 12.2224 6.22884 12.4987 6.22884C12.775 6.22884 13.0399 6.11909 13.2353 5.92374C13.4306 5.72839 13.5404 5.46344 13.5404 5.18717C13.5404 4.91091 13.4306 4.64596 13.2353 4.4506C13.0399 4.25525 12.775 4.14551 12.4987 4.14551ZM21.8737 6.74967C21.5974 6.74967 21.3325 6.85942 21.1371 7.05477C20.9418 7.25012 20.832 7.51507 20.832 7.79134C20.832 8.06761 20.9418 8.33256 21.1371 8.52791C21.3325 8.72326 21.5974 8.83301 21.8737 8.83301C22.15 8.83301 22.4149 8.72326 22.6103 8.52791C22.8056 8.33256 22.9154 8.06761 22.9154 7.79134C22.9154 7.51507 22.8056 7.25012 22.6103 7.05477C22.4149 6.85942 22.15 6.74967 21.8737 6.74967ZM3.1237 6.74967C2.84743 6.74967 2.58248 6.85942 2.38713 7.05477C2.19178 7.25012 2.08203 7.51507 2.08203 7.79134C2.08203 8.06761 2.19178 8.33256 2.38713 8.52791C2.58248 8.72326 2.84743 8.83301 3.1237 8.83301C3.39996 8.83301 3.66492 8.72326 3.86027 8.52791C4.05562 8.33256 4.16536 8.06761 4.16536 7.79134C4.16536 7.51507 4.05562 7.25012 3.86027 7.05477C3.66492 6.85942 3.39996 6.74967 3.1237 6.74967Z" fill="#FF9800"/>
</svg>

<svg width="25" height="26" fill="none" xmlns="http://www.w3.org/2000/svg"><path d="M18.749 19.25h-12.5L3.645 8.834 8.853 13l3.646-6.77L16.145 13l5.208-4.166-2.604 10.416Z" fill="#FFC107"/><path d="M6.249 19.25h12.5v2.604h-12.5V19.25Zm6.25-15.104a1.042 1.042 0 1 0 0 2.083 1.042 1.042 0 0 0 0-2.083Zm9.375 2.604a1.042 1.042 0 1 0 0 2.083 1.042 1.042 0 0 0 0-2.083Zm-18.75 0a1.042 1.042 0 1 0 0 2.083 1.042 1.042 0 0 0 0-2.083Z" fill="#FF9800"/></svg>
